X: 10
M: C|
L: 1/8
K: G
gd Bd g3 B | AB GA F3 D |
EFGA BcAd | B2 (AG) G2 |] Bc |\
dB GB g3 e | de cd B2 AG |\
ce gc Bd gB |
ab ga f2 (de/f/) |\
ge cg Bd gB | AB GA FA dc |\


